convobunny/img/ConvoBunny.svg

<?xml version="1.0" encoding="UTF-8"?>
<svg width="200px" height="65px" viewBox="0 0 200 65" version="1.1" xmlns="http://www.w3.org/2000/svg" xmlns:xlink="http://www.w3.org/1999/xlink">
    <title>6AB20995-84D0-4D8B-B7C7-973FC816A7FB</title>
    <defs>
        <polygon id="path-1" points="0 9.52949185e-15 43.7184912 9.52949185e-15 43.7184912 24.445264 0 24.445264"></polygon>
        <polygon id="path-3" points="-4.76474592e-15 -4.76474592e-15 6.00972339 -4.76474592e-15 6.00972339 8.02776194 -4.76474592e-15 8.02776194"></polygon>
        <polygon id="path-5" points="-3.81179674e-14 4.76474592e-15 14.6435541 4.76474592e-15 14.6435541 20.8080469 -3.81179674e-14 20.8080469"></polygon>
    </defs>
    <g id="Page-1" stroke="none" stroke-width="1" fill="none" fill-rule="evenodd">
        <g id="Index" transform="translate(-347.000000, -16.000000)">
            <g id="Logo" transform="translate(347.000000, 16.000000)">
                <path d="M61.0725231,9.23560771 L61.063135,9.23560771 C46.7087343,9.23560771 27.1774686,20.8728248 27.1774686,35.2272255 L27.1774686,35.2272255 C27.1774686,35.2272255 46.8750377,40.0084493 61.0725231,9.23560771 Z" id="Fill-1" fill="#008CCF"></path>
                <path d="M24.980922,32.3527242 C26.1745516,23.7988265 34.1061526,16.4224644 43.2528416,12.2393965 C44.5376697,8.74568315 45.6374183,4.7101425 46.4421123,0 L46.4421123,0 L46.4327242,0.0026823135 C33.0908969,3.59832355 17.9331433,18.8539816 20.1500754,32.3527242 L24.980922,32.3527242 Z" id="Fill-3" fill="#00ACE7"></path>
                <g id="Group-7" transform="translate(0.000000, 32.156379)">
                    <mask id="mask-2" fill="white">
                        <use xlink:href="#path-1"></use>
                    </mask>
                    <g id="Clip-6"></g>
                    <path d="M31.4965298,24.445264 L12.2227661,24.445264 C5.47272422,24.445264 -0.000536462699,18.9733445 -0.000536462699,12.2233026 L-0.000536462699,12.2219614 C-0.000536462699,5.47191953 5.47272422,9.52949185e-15 12.2227661,9.52949185e-15 L31.4965298,9.52949185e-15 C38.2465717,9.52949185e-15 43.7184912,5.47191953 43.7184912,12.2219614 L43.7184912,12.2233026 C43.7184912,18.9733445 38.2465717,24.445264 31.4965298,24.445264" id="Fill-5" fill="#008CCF" mask="url(#mask-2)"></path>
                </g>
                <g id="Group-10" transform="translate(27.177334, 55.990210)">
                    <mask id="mask-4" fill="white">
                        <use xlink:href="#path-3"></use>
                    </mask>
                    <g id="Clip-9"></g>
                    <polygon id="Fill-8" fill="#008CCF" mask="url(#mask-4)" points="-4.76474592e-15 -4.76474592e-15 6.00972339 -4.76474592e-15 6.00972339 8.02816429"></polygon>
                </g>
                <path d="M13.1558089,41.9331433 C11.805264,41.9331433 10.709539,43.0288684 10.709539,44.3794132 C10.709539,45.7299581 11.805264,46.8256832 13.1558089,46.8256832 C14.5063537,46.8256832 15.6020788,45.7299581 15.6020788,44.3794132 C15.6020788,43.0288684 14.5063537,41.9331433 13.1558089,41.9331433" id="Fill-11" fill="#FEFEFE"></path>
                <path d="M21.8596479,41.9331433 C20.5091031,41.9331433 19.413378,43.0288684 19.413378,44.3794132 C19.413378,45.7299581 20.5091031,46.8256832 21.8596479,46.8256832 C23.2101928,46.8256832 24.3059179,45.7299581 24.3059179,44.3794132 C24.3059179,43.0288684 23.2101928,41.9331433 21.8596479,41.9331433" id="Fill-13" fill="#FEFEFE"></path>
                <path d="M30.5633529,41.9331433 C29.212808,41.9331433 28.117083,43.0288684 28.117083,44.3794132 C28.117083,45.7299581 29.212808,46.8256832 30.5633529,46.8256832 C31.9138977,46.8256832 33.0096228,45.7299581 33.0096228,44.3794132 C33.0096228,43.0288684 31.9138977,41.9331433 30.5633529,41.9331433" id="Fill-15" fill="#FEFEFE"></path>
                <path d="M64.5659681,51.9873931 C63.169824,53.2252808 61.3257334,53.8583068 59.088684,53.8583068 C56.3755239,53.8583068 54.2417435,52.9878961 52.688684,51.2765801 C51.1342833,49.5639229 50.369824,47.1940989 50.369824,44.165767 C50.369824,41.1360939 51.1342833,38.7394468 52.688684,37.0281308 C54.2417435,35.3154736 56.3487008,34.446404 59.0618609,34.446404 C61.2734283,34.446404 63.0906957,35.0526069 64.4868399,36.2904946 C64.5659681,37.9763286 63.7237217,39.3456496 62.2216262,39.6621626 C61.4062028,38.9500084 60.458005,38.6080134 59.3247276,38.6080134 C57.0340319,38.6080134 55.8752724,40.4507628 55.8752724,44.165767 C55.8752724,47.8526069 57.0340319,49.6966974 59.3247276,49.6966974 C60.458005,49.6966974 61.4316848,49.3278793 62.3007544,48.6157251 C63.7760268,48.9322381 64.5927913,50.3015591 64.5659681,51.9873931" id="Fill-17" fill="#00ACE7"></path>
                <path d="M74.3149707,46.166907 C74.3149707,43.6656496 73.6564627,42.4264208 72.3126236,42.4264208 C70.9701257,42.4264208 70.2861358,43.6656496 70.2861358,46.166907 C70.2861358,48.6681643 70.9701257,49.9342163 72.3126236,49.9342163 C73.6041576,49.9342163 74.3149707,48.5903772 74.3149707,46.166907 M79.5039061,46.166907 C79.5039061,48.5635541 78.8708801,50.4344677 77.6075105,51.8024476 C76.3173177,53.1731098 74.5523554,53.8570997 72.3126236,53.8570997 C70.074233,53.8570997 68.3092707,53.1731098 67.019078,51.8024476 C65.7288852,50.4599497 65.0958592,48.5635541 65.0958592,46.166907 C65.0958592,41.3990947 67.8090193,38.4767142 72.3126236,38.4767142 C76.7639229,38.4767142 79.5039061,41.3990947 79.5039061,46.166907" id="Fill-19" fill="#00ACE7"></path>
                <path d="M94.2037888,42.874233 L94.2037888,52.8564627 C93.5707628,53.1984577 92.7016932,53.3567142 91.622062,53.3567142 C90.5960771,53.3567142 89.7793127,53.1984577 89.1462867,52.8564627 L89.1462867,43.7433026 C89.1462867,42.874233 88.8042917,42.4262867 88.1189606,42.4262867 C87.4081475,42.4262867 86.8287678,42.9010562 86.4076446,43.8224308 L86.4076446,52.8564627 C85.7759598,53.1984577 84.905549,53.3567142 83.8259179,53.3567142 C82.7999329,53.3567142 81.9831685,53.1984577 81.3501425,52.8564627 L81.3501425,39.502565 C81.9563453,39.16057 82.7194635,39.0023135 83.6421794,39.0023135 C84.511249,39.0023135 85.2488852,39.16057 85.8014417,39.502565 L86.2493881,40.7404526 C87.0929757,39.3979547 88.6728583,38.502062 90.227259,38.502062 C92.622565,38.502062 94.2037888,40.2670243 94.2037888,42.874233" id="Fill-21" fill="#00ACE7"></path>
                <path d="M98.7897402,52.6723219 L94.7609053,39.4766806 C95.340285,39.1615088 96.2093546,39.0032523 97.368114,39.0032523 C98.6060017,39.0032523 99.5005532,39.1615088 100.054451,39.4766806 L101.976329,49.0123051 L102.056798,49.0123051 L103.951852,39.4766806 C104.50575,39.1615088 105.400302,39.0032523 106.639531,39.0032523 C107.719162,39.0032523 108.534585,39.1615088 109.140788,39.4766806 L105.137435,52.6723219 C104.268365,53.1202682 103.214216,53.357653 101.924023,53.357653 C100.660654,53.357653 99.6065046,53.1202682 98.7897402,52.6723219" id="Fill-23" fill="#00ACE7"></path>
                <path d="M118.520034,46.166907 C118.520034,43.6656496 117.861526,42.4264208 116.517687,42.4264208 C115.175189,42.4264208 114.491199,43.6656496 114.491199,46.166907 C114.491199,48.6681643 115.175189,49.9342163 116.517687,49.9342163 C117.80922,49.9342163 118.520034,48.5903772 118.520034,46.166907 M123.708969,46.166907 C123.708969,48.5635541 123.075943,50.4344677 121.812573,51.8024476 C120.522381,53.1731098 118.757418,53.8570997 116.517687,53.8570997 C114.279296,53.8570997 112.514334,53.1731098 111.224141,51.8024476 C109.933948,50.4599497 109.300922,48.5635541 109.300922,46.166907 C109.300922,41.3990947 112.014082,38.4767142 116.517687,38.4767142 C120.968986,38.4767142 123.708969,41.3990947 123.708969,46.166907" id="Fill-25" fill="#00ACE7"></path>
                <path d="M134.932171,47.6416429 C134.932171,46.2454987 133.930327,45.5346857 131.956144,45.5346857 L130.84969,45.5346857 L130.84969,49.6171668 C131.24399,49.6962951 131.666454,49.7231182 132.11306,49.7231182 C133.904845,49.7231182 134.932171,48.9318357 134.932171,47.6416429 L134.932171,47.6416429 Z M130.84969,42.3480972 L131.771065,42.3480972 C133.325465,42.3480972 134.194535,41.635943 134.194535,40.3470914 C134.194535,39.2138139 133.404593,38.555306 131.956144,38.555306 L130.84969,38.555306 L130.84969,42.3480972 Z M128.242481,53.5682146 C127.109204,53.357653 126.214652,53.0679631 125.581626,52.724627 L125.581626,34.9462531 L131.324459,34.9462531 C136.776262,34.9462531 139.514904,36.6320872 139.514904,39.9769321 C139.514904,41.5836379 138.51306,42.7960436 136.512054,43.63829 C138.935524,44.4027494 140.304845,45.982632 140.304845,47.9836379 C140.304845,51.6718189 137.118256,53.8579044 131.666454,53.8579044 C130.533177,53.8579044 129.374417,53.7519531 128.242481,53.5682146 L128.242481,53.5682146 Z" id="Fill-27" fill="#008CCF"></path>
                <path d="M154.477921,39.5031014 L154.477921,52.8569992 C153.819413,53.1989941 153.029472,53.3572506 152.160402,53.3572506 C151.318156,53.3572506 150.606002,53.1989941 150.026622,52.8569992 L149.632322,51.7505448 C148.763252,53.0139145 147.208852,53.8575021 145.760402,53.8575021 C143.336932,53.8575021 141.783873,52.119363 141.783873,49.4853311 L141.783873,39.5031014 C142.363252,39.1611065 143.232322,39.00285 144.364258,39.00285 C145.443889,39.00285 146.260654,39.1611065 146.840034,39.5031014 L146.840034,48.5894384 C146.840034,49.5121542 147.18337,49.9601006 147.86736,49.9601006 C148.472221,49.9601006 149.000637,49.5899413 149.394937,48.8536463 L149.394937,39.5031014 C150.00114,39.1611065 150.87021,39.00285 151.975323,39.00285 C153.029472,39.00285 153.871718,39.1611065 154.477921,39.5031014" id="Fill-29" fill="#008CCF"></path>
                <path d="M169.704744,42.874233 L169.704744,52.8564627 C169.071718,53.1984577 168.202649,53.3567142 167.123018,53.3567142 C166.097033,53.3567142 165.280268,53.1984577 164.647242,52.8564627 L164.647242,43.7433026 C164.647242,42.874233 164.305247,42.4262867 163.619916,42.4262867 C162.909103,42.4262867 162.329723,42.9010562 161.9086,43.8224308 L161.9086,52.8564627 C161.276915,53.1984577 160.406505,53.3567142 159.326873,53.3567142 C158.300889,53.3567142 157.484124,53.1984577 156.852439,52.8564627 L156.852439,39.502565 C157.457301,39.16057 158.220419,39.0023135 159.143135,39.0023135 C160.012205,39.0023135 160.749841,39.16057 161.302397,39.502565 L161.750344,40.7404526 C162.593931,39.3979547 164.173814,38.502062 165.728215,38.502062 C168.123521,38.502062 169.704744,40.2670243 169.704744,42.874233" id="Fill-31" fill="#008CCF"></path>
                <path d="M184.799866,42.874233 L184.799866,52.8564627 C184.16684,53.1984577 183.29777,53.3567142 182.218139,53.3567142 C181.192154,53.3567142 180.37539,53.1984577 179.742364,52.8564627 L179.742364,43.7433026 C179.742364,42.874233 179.400369,42.4262867 178.715038,42.4262867 C178.004225,42.4262867 177.424845,42.9010562 177.003722,43.8224308 L177.003722,52.8564627 C176.372037,53.1984577 175.501626,53.3567142 174.421995,53.3567142 C173.39601,53.3567142 172.579246,53.1984577 171.947561,52.8564627 L171.947561,39.502565 C172.552422,39.16057 173.315541,39.0023135 174.238256,39.0023135 C175.107326,39.0023135 175.844962,39.16057 176.397519,39.502565 L176.845465,40.7404526 C177.689053,39.3979547 179.268935,38.502062 180.823336,38.502062 C183.218642,38.502062 184.799866,40.2670243 184.799866,42.874233" id="Fill-33" fill="#008CCF"></path>
                <g id="Group-37" transform="translate(185.356446, 39.002850)">
                    <mask id="mask-6" fill="white">
                        <use xlink:href="#path-5"></use>
                    </mask>
                    <g id="Clip-36"></g>
                    <path d="M14.6440905,0.500251467 L10.2450964,14.9592624 C9.16546521,18.5683152 6.16261526,20.6752724 1.92321878,20.8080469 C1.3706622,20.4647108 1.07963118,19.833026 1.07963118,18.9371333 C1.07963118,18.3309304 1.21106454,17.7783738 1.50209556,17.3304275 C4.16160939,16.9884325 5.45180218,16.0925398 5.8729254,14.3020956 C5.03067896,14.2216262 4.31986588,14.0110645 3.76596815,13.6690696 L-3.81179674e-14,0.473428332 C0.60620285,0.158256496 1.50209556,4.76474592e-15 2.73998324,4.76474592e-15 C3.92422464,4.76474592e-15 4.76781224,0.158256496 5.29354568,0.473428332 L7.21676446,10.0868399 L9.35054484,0.500251467 C9.90310142,0.158256496 10.7453479,4.76474592e-15 11.8518022,4.76474592e-15 C13.141995,4.76474592e-15 14.0647108,0.158256496 14.6440905,0.500251467" id="Fill-35" fill="#008CCF" mask="url(#mask-6)"></path>
                </g>
            </g>
        </g>
    </g>
</svg>

<svg width="200" height="65" xmlns="http://www.w3.org/2000/svg" xmlns:xlink="http://www.w3.org/1999/xlink"><defs><path id="a" d="M0 0h43.718v24.445H0z"/><path id="c" d="M0 0h6.01v8.028H0z"/><path id="e" d="M0 0h14.644v20.808H0z"/></defs><g fill="none" fill-rule="evenodd"><path d="M61.073 9.236h-.01c-14.354 0-33.886 11.637-33.886 25.991 0 0 19.698 4.781 33.896-25.991z" fill="#008CCF"/><path d="M24.98 32.353c1.195-8.554 9.126-15.93 18.273-20.114C44.538 8.746 45.637 4.71 46.443 0l-.01.003c-13.342 3.595-28.5 18.851-26.283 32.35h4.83z" fill="#00ACE7"/><g transform="translate(0 32.156)"><mask id="b" fill="#fff"><use xlink:href="#a"/></mask><path d="M31.497 24.445H12.223c-6.75 0-12.224-5.472-12.224-12.222v-.001C0 5.472 5.473 0 12.223 0h19.274c6.75 0 12.221 5.472 12.221 12.222v.001c0 6.75-5.471 12.222-12.221 12.222" fill="#008CCF" mask="url(#b)"/></g><g transform="translate(27.177 55.99)"><mask id="d" fill="#fff"><use xlink:href="#c"/></mask><path fill="#008CCF" mask="url(#d)" d="M0 0h6.01v8.028z"/></g><path d="M13.156 41.933a2.447 2.447 0 10.001 4.894 2.447 2.447 0 00-.001-4.894m8.704 0a2.447 2.447 0 100 4.894 2.447 2.447 0 000-4.894m8.703 0a2.447 2.447 0 10.002 4.894 2.447 2.447 0 00-.002-4.894" fill="#FEFEFE"/><path d="M64.566 51.987c-1.396 1.238-3.24 1.871-5.477 1.871-2.713 0-4.847-.87-6.4-2.581-1.555-1.713-2.32-4.083-2.32-7.111 0-3.03.765-5.427 2.32-7.138 1.553-1.713 3.66-2.582 6.373-2.582 2.211 0 4.029.607 5.425 1.844.079 1.686-.763 3.056-2.265 3.372-.816-.712-1.764-1.054-2.897-1.054-2.291 0-3.45 1.843-3.45 5.558 0 3.687 1.159 5.53 3.45 5.53 1.133 0 2.107-.368 2.976-1.08 1.475.316 2.292 1.686 2.265 3.371m9.749-5.82c0-2.501-.659-3.74-2.002-3.74-1.343 0-2.027 1.239-2.027 3.74 0 2.501.684 3.767 2.027 3.767 1.291 0 2.002-1.344 2.002-3.767m5.189 0c0 2.397-.633 4.267-1.896 5.635-1.29 1.371-3.056 2.055-5.295 2.055s-4.004-.684-5.294-2.055c-1.29-1.342-1.923-3.238-1.923-5.635 0-4.768 2.713-7.69 7.217-7.69 4.45 0 7.19 2.922 7.19 7.69m14.701-3.293v9.982c-.633.342-1.502.5-2.582.5-1.026 0-1.843-.158-2.476-.5v-9.113c0-.869-.342-1.317-1.027-1.317-.71 0-1.29.475-1.711 1.396v9.034c-.632.342-1.502.5-2.582.5-1.026 0-1.843-.158-2.476-.5V39.503c.606-.342 1.37-.5 2.292-.5.87 0 1.607.158 2.16.5l.447 1.237c.844-1.342 2.424-2.238 3.978-2.238 2.396 0 3.977 1.765 3.977 4.372m4.586 9.798l-4.03-13.195c.58-.315 1.45-.474 2.608-.474 1.238 0 2.133.159 2.686.474l1.922 9.535h.08l1.896-9.535c.554-.315 1.448-.474 2.688-.474 1.08 0 1.895.159 2.5.474l-4.003 13.195c-.869.448-1.923.686-3.213.686-1.263 0-2.317-.238-3.134-.686m19.73-6.505c0-2.501-.658-3.74-2.002-3.74-1.343 0-2.027 1.239-2.027 3.74 0 2.501.684 3.767 2.027 3.767 1.291 0 2.002-1.344 2.002-3.767m5.189 0c0 2.397-.633 4.267-1.896 5.635-1.29 1.371-3.056 2.055-5.295 2.055s-4.004-.684-5.294-2.055c-1.29-1.342-1.923-3.238-1.923-5.635 0-4.768 2.713-7.69 7.217-7.69 4.451 0 7.191 2.922 7.191 7.69" fill="#00ACE7"/><path d="M134.932 47.642c0-1.397-1.002-2.107-2.976-2.107h-1.106v4.082c.394.08.816.106 1.263.106 1.792 0 2.82-.791 2.82-2.081zm-4.082-5.294h.921c1.554 0 2.424-.712 2.424-2 0-1.134-.79-1.793-2.239-1.793h-1.106v3.793zm-2.608 11.22c-1.133-.21-2.027-.5-2.66-.843V34.946h5.742c5.452 0 8.19 1.686 8.19 5.03 0 1.608-1 2.82-3.002 3.662 2.424.765 3.793 2.345 3.793 4.346 0 3.688-3.187 5.874-8.639 5.874-1.133 0-2.292-.106-3.424-.29zm26.236-14.065v13.354c-.659.342-1.449.5-2.318.5-.842 0-1.554-.158-2.133-.5l-.395-1.106c-.869 1.263-2.423 2.107-3.872 2.107-2.423 0-3.976-1.739-3.976-4.373v-9.982c.58-.342 1.448-.5 2.58-.5 1.08 0 1.897.158 2.476.5v9.086c0 .923.343 1.371 1.027 1.371.605 0 1.134-.37 1.528-1.106v-9.35c.606-.343 1.475-.501 2.58-.501 1.054 0 1.897.158 2.503.5m15.227 3.371v9.982c-.633.342-1.502.5-2.582.5-1.026 0-1.843-.158-2.476-.5v-9.113c0-.869-.342-1.317-1.027-1.317-.71 0-1.29.475-1.711 1.396v9.034c-.632.342-1.502.5-2.582.5-1.026 0-1.843-.158-2.475-.5V39.503c.605-.342 1.368-.5 2.291-.5.87 0 1.607.158 2.16.5l.447 1.237c.844-1.342 2.424-2.238 3.978-2.238 2.396 0 3.977 1.765 3.977 4.372m15.095 0v9.982c-.633.342-1.502.5-2.582.5-1.026 0-1.843-.158-2.476-.5v-9.113c0-.869-.342-1.317-1.027-1.317-.71 0-1.29.475-1.711 1.396v9.034c-.632.342-1.502.5-2.582.5-1.026 0-1.843-.158-2.474-.5V39.503c.604-.342 1.368-.5 2.29-.5.87 0 1.607.158 2.16.5l.447 1.237c.844-1.342 2.424-2.238 3.978-2.238 2.396 0 3.977 1.765 3.977 4.372" fill="#008CCF"/><g transform="translate(185.356 39.003)"><mask id="f" fill="#fff"><use xlink:href="#e"/></mask><path d="M14.644.5l-4.399 14.46c-1.08 3.608-4.082 5.715-8.322 5.848-.552-.343-.843-.975-.843-1.87 0-.607.131-1.16.422-1.608 2.66-.342 3.95-1.237 4.37-3.028-.841-.08-1.552-.29-2.106-.633L0 .473C.606.158 1.502 0 2.74 0c1.184 0 2.028.158 2.554.473l1.923 9.614L9.35.5c.552-.342 1.394-.5 2.5-.5 1.291 0 2.214.158 2.793.5" fill="#008CCF" mask="url(#f)"/></g></g></svg>
